X:1456
T:Jenny's Welcome To Charley
M:C|
L:1/8
N:"collected by McFadden"
B:O'Neill's 1456
Z:"Transcribed by Bob Safranek, rjs@gsp.org"
K:D
D3 B   AGEF|GEcE   dEcE|D2 dc     AGEG|3ABA AG   EFGE|
D3 B   AGEF|GEcE   dEcE|D2 dc     AGEG|3ABA AG TED D2||
d2 e   dcAB|cAdB   cAGB|Addc    Tdcdd|cAGE      TED D2|
Tdcde  dcAB|cAdB   cAGE|D2 3EFG  AddB|cAGE       TED  D2||
eaag  agef|geaf   gedg|eaag   Tagaa|agea        e2  d2|
eaag   agef|geaf   gedB|A2 3Bcd  e2 dB|cAGE       TED  D2||
dfec    dfed|cAAB c2 AG|Adedc   Tdcdd|eaag        e2  d2|
dcdB    dfed|cAAB   cdcA|GAcd   3efe de|cAGc 3ABA "D.C."GE|]
